X: 11552
T: EVELEEN'S BOWER
O: Irish air.
Q: "Briskly."
%R: reel
B: W. Hamilton "Universal Tune-Book" Vol. 1 Glasgow 1844 p.155 #2
S: http://imslp.org/wiki/Hamilton's_Universal_Tune-Book_(Various)
Z: 2016 John Chambers <jc:trillian.mit.edu>
M: C
L: 1/8
K: C
% - - - - - - - - - - - - - - - - - - - - - - - - -
G2 |\
c2cc cBAG | Gccc cBAG |\
Gccc cege | d2G>{B}A G2zf |\
edef g2ec | cAGF FEFG |\
ABcA d>c{c}BA | G2c2 c2 |]
% - - - - - - - - - - - - - - - - - - - - - - - - -

%%sep 1 1 500
%%sep 1 1 500

